X:15014
T:Over the Waterfall
R:Reel
C:Trad.
O:USA
Z:Paul Hardy's Session Tunebook 2022 (see www.paulhardy.net). Creative Commons cc by-nc-sa licenced.
M:2/2
L:1/8
Q:1/2=100
K:Dmix
de|"D"f2a2 "A"gfe2|"D"d2B2 A4|"D"f2a2 "A"gfe2|"D"d4 d2de|"D"f2a2 "A"gfe2|"D"d2B2 A3B|"C"c2c2 B2A2|"G"G4 G2:|
|:FG|"D"A2A2 "G"B2B2|"D"ABAG F4|"D"A2d2 "Am"cde2|"D"f4 z4|"D"A2A2 "G"B2B2|"D"ABAG F2FG|"D"A2A2 "A7"GFE2|"D"D4 D2:|

